X:1
T:Lovsang av Beethoven
T:Ludwig van Beethoven, 1803
T:Lovsang av Beethoven
T:Public Domain
T:Public Domain
C:Ludwig van Beethoven, 1803
Z:Public Domain
%%score ( 1 2 ) ( 3 4 )
L:1/8
M:4/4
K:C
V:1 treble 
V:2 treble 
V:3 bass 
V:4 bass 
V:1
 G2 | c4 G4 | E4 C2 [Ge]2 | [Ge]4 [Gd]2 [Gc]2 | [Gc]4 [GB]2 G2 | [Ff]4 [Dd]4 | [B,B]4 G4 | %7
 [^Fc]4 (d3 B) | [Ec]6 E2 | [B,E]6 [B,E]2 | [CE]6 [CE]2 | [CF]4 [_EF]2 [EF]2 | [DF]4 [DF]2 [DF]2 | %13
 [D^F]4 [DA]4 | [D_B]6 G2 | c4 d4 | G6 G2 | G4 G2 [G_B]2 | G4 G2 [G=e]2 | (_e2 ee) [Ge]2 (dc) | %20
 (c2 B2) F2 F2 | F4 F2 [FG]2 | (_E4 E2) [Ec]2 | (c3 c) ([DB]3 [Cc]) | [B,d]6 G2 | c4 G4 | %26
 E4 C2 [Ge]2 | [Ge]4 [Gd]2 [Gc]2 | [Gc]4 [GB]2 G2 | [Ff]4 [Dd]4 | [B,B]6 G2 | [Ec]4 [Gd]4 | %32
 [Ge]6 [Ge]2 | [Ae]6 [Ae]2 | [Af]6 [Ad]2 | [Gg]4 [FB]4 | [Ec]6 |] %37
V:2
 G2 | c4 G4 | E4 C2 x2 | x8 | x6 G2 | x8 | x4 G4 | x4 =F4 | x6 E2 | x8 | x8 | x8 | x8 | x8 | %14
 x6 G2 | c4 d4 | G6 G2 | G4 G2 x2 | _e6 x2 | G6 G2 | F4 F2 x2 | F4 F2 x2 | c6 x2 | _E6 x2 | x6 G2 | %25
 c4 G4 | E4 C2 x2 | x8 | x6 G2 | x8 | x6 G2 | x8 | x8 | x8 | x8 | x8 | x6 |] %37
V:3
 G,2 | C4 G,4 | E,4 C,2 [C,C]2 | [C,C]4 [B,,F]2 [C,E]2 | [E,E]4 [G,,D]2 [G,,G,]2 | [F,F]4 [D,D]4 | %6
 [B,,B,]4 [G,,G,]4 | [_A,,C]4 (B,3 D) | [C,C]6 E,2 | [E,^G,]6 [E,G,]2 | [A,,A,]6 A,2 | %11
 [F,A,]4 [F,C]2 [F,C]2 | [_B,,_B,]4 [B,,B,]2 B,2 | [A,C]4 [^F,C]4 | [G,_B,]6 G,2 | [C,C]4 [D,D]4 | %16
 [G,,G,]6 [_E,_B,]2 | [_E,_B,]4 [E,B,]2 [E,B,]2 | [_E,_B,]4 [E,B,]2 [E,B,]2 | %19
 [_E,_B,]4 [E,B,]2 [E,B,]2 | [D,G,]4 [D,G,]2 [D,G,]2 | [D,G,]4 [D,G,]2 [D,G,]2 | %22
 [C,G,]4 [C,G,]2 [C,G,]2 | [_A,,^F,]4 [A,,F,]4 | [G,,G,]6 G,2 | C4 G,4 | E,4 C,2 [C,C]2 | %27
 [C,C]4 [B,,F]2 [C,E]2 | [G,,E]4 [G,,D]2 G,2 | [F,F]4 [D,D]4 | [B,,B,]6 [G,,G,]2 | %31
 [A,,C]4 [G,,B,]4 | [C,C]6 [C,C]2 | [A,^C]6 [A,C]2 | [D,D]6 [F,D]2 | [G,E]4 [G,,D]4 | [C,C]6 |] %37
V:4
 G,2 | C4 G,4 | E,4 C,2 x2 | x8 | x8 | x8 | x8 | x4 G,,4 | x6 E,2 | x8 | x6 A,2 | x8 | x6 _B,2 | %13
 x8 | x6 G,2 | x8 | x8 | x8 | x8 | x8 | x8 | x8 | x8 | x8 | x6 G,2 | C4 G,4 | E,4 C,2 x2 | x8 | %28
 x6 G,2 | x8 | x8 | x8 | x8 | x8 | x8 | x8 | x6 |] %37

